traccar-master/traccar-web/web/images/person.svg

<?xml version="1.0" encoding="UTF-8" standalone="no"?>

<svg
   xmlns:dc="http://purl.org/dc/elements/1.1/"
   xmlns:cc="http://creativecommons.org/ns#"
   xmlns:rdf="http://www.w3.org/1999/02/22-rdf-syntax-ns#"
   xmlns:svg="http://www.w3.org/2000/svg"
   xmlns="http://www.w3.org/2000/svg"
   xmlns:sodipodi="http://sodipodi.sourceforge.net/DTD/sodipodi-0.dtd"
   width="40"
   height="40"
   viewBox="0 0 40 40"
   id="svg4145"
   version="1.1"
   sodipodi:docname="person.svg">
  <defs
     id="defs4147" />
  <sodipodi:namedview
     id="base"
     pagecolor="#ffffff"
     bordercolor="#666666"
     borderopacity="1.0"
     showgrid="false"
     units="px" />
  <metadata
     id="metadata4150">
    <rdf:RDF>
      <cc:Work
         rdf:about="">
        <dc:format>image/svg+xml</dc:format>
        <dc:type
           rdf:resource="http://purl.org/dc/dcmitype/StillImage" />
        <dc:title></dc:title>
      </cc:Work>
    </rdf:RDF>
  </metadata>
  <g
     id="layer1">
    <path
       style="fill:#008000;fill-opacity:1;stroke:#333333;stroke-width:1.89999998;stroke-miterlimit:4;stroke-dasharray:none;stroke-opacity:1"
       d="M 20.001953 3.6816406 L 18.871094 7.0722656 A 12.37437 12.37437 0 0 1 20.001953 7.0097656 A 12.37437 12.37437 0 0 1 21.130859 7.0664062 L 20.001953 3.6816406 z M 20 7.625 A 12.37437 12.37437 0 0 0 7.625 20 A 12.37437 12.37437 0 0 0 20 32.375 A 12.37437 12.37437 0 0 0 32.375 20 A 12.37437 12.37437 0 0 0 20 7.625 z "
       id="background" />
    <path
       id="icon"
       style="font-style:normal;font-variant:normal;font-weight:normal;font-stretch:normal;font-size:medium;line-height:125%;font-family:FontAwesome;-inkscape-font-specification:'FontAwesome, Normal';text-align:start;letter-spacing:0px;word-spacing:0px;writing-mode:lr-tb;text-anchor:start;fill:#000000;fill-opacity:1;stroke:none;stroke-width:1.4083333px;stroke-linecap:butt;stroke-linejoin:miter;stroke-opacity:1"
       d="m 26.287203,24.941349 q 0,1.070788 -0.618898,1.837041 -0.609072,0.766253 -1.473563,0.766253 l -8.389485,0 q -0.86449,0 -1.483387,-0.766253 -0.609073,-0.766253 -0.609073,-1.837041 0,-0.835019 0.07859,-1.571802 0.08841,-0.746605 0.31436,-1.49321 0.225946,-0.756429 0.569778,-1.286911 0.353655,-0.540308 0.923433,-0.874315 0.579601,-0.34383 1.326206,-0.34383 1.286913,1.25744 3.074835,1.25744 1.787923,0 3.074836,-1.25744 0.746605,0 1.316382,0.34383 0.579602,0.334007 0.923432,0.874315 0.353655,0.530482 0.579603,1.286911 0.225946,0.746605 0.304536,1.49321 0.08842,0.736783 0.08842,1.571802 z M 22.662237,13.565442 q 1.110084,1.10026 1.110084,2.662237 0,1.561977 -1.110084,2.672061 Q 21.561977,20 20,20 q -1.561977,0 -2.672062,-1.10026 -1.10026,-1.110084 -1.10026,-2.672061 0,-1.561977 1.10026,-2.662237 Q 18.438023,12.455357 20,12.455357 q 1.561977,0 2.662237,1.110085 z" />
  </g>
</svg>

<?xml version="1.0" encoding="UTF-8" standalone="no"?>
<svg id="svg4145" xmlns:rdf="http://www.w3.org/1999/02/22-rdf-syntax-ns#" xmlns="http://www.w3.org/2000/svg" height="40" width="40" version="1.1" xmlns:cc="http://creativecommons.org/ns#" xmlns:dc="http://purl.org/dc/elements/1.1/" viewBox="0 0 40 40">
 <g id="layer1">
  <path id="background" d="m20.002 3.6816l-1.131 3.3907a12.374 12.374 0 0 1 1.131 -0.0625 12.374 12.374 0 0 1 1.129 0.0566l-1.129-3.3848zm-0.002 3.9434a12.374 12.374 0 0 0 -12.375 12.375 12.374 12.374 0 0 0 12.375 12.375 12.374 12.374 0 0 0 12.375 -12.375 12.374 12.374 0 0 0 -12.375 -12.375z" stroke="#333" stroke-width="1.9" fill="#008000"/>
  <path id="icon" d="m26.287 24.941q0 1.0708-0.6189 1.837-0.60907 0.76625-1.4736 0.76625h-8.3895q-0.86449 0-1.4834-0.76625-0.60907-0.76625-0.60907-1.837 0-0.83502 0.07859-1.5718 0.08841-0.7466 0.31436-1.4932 0.22595-0.75643 0.56978-1.2869 0.35366-0.54031 0.92343-0.87432 0.5796-0.34383 1.3262-0.34383 1.2869 1.2574 3.0748 1.2574t3.0748-1.2574q0.7466 0 1.3164 0.34383 0.5796 0.33401 0.92343 0.87432 0.35366 0.53048 0.5796 1.2869 0.22595 0.7466 0.30454 1.4932 0.08842 0.73678 0.08842 1.5718zm-3.625-11.376q1.1101 1.1003 1.1101 2.6622 0 1.562-1.1101 2.6721-1.1 1.101-2.662 1.101t-2.6721-1.1003q-1.1003-1.1101-1.1003-2.6721t1.1003-2.6622q1.11-1.11 2.672-1.11t2.6622 1.1101z"/>
 </g>
</svg>
